packages/core/src/svgs/tokens/branded/KIBA.svg

<svg width="24" height="24" viewBox="0 0 24 24" fill="none" xmlns="http://www.w3.org/2000/svg">
<path d="M12 2C14.6522 2 17.1957 3.05357 19.0711 4.92892C20.9464 6.80429 22 9.34785 22 12C22 14.6522 20.9464 17.1957 19.0711 19.071C17.1957 20.9464 14.6522 22 12 22C9.34784 22 6.80429 20.9464 4.92892 19.071C3.05357 17.1957 2 14.6522 2 12C2 9.34785 3.05357 6.80429 4.92892 4.92892C6.80429 3.05357 9.34784 2 12 2Z" fill="url(#paint0_linear_364_5193)"/>
<path d="M11.9998 3.17657C14.3399 3.17657 16.5843 4.10619 18.239 5.76092C19.8938 7.41565 20.8234 9.65994 20.8234 12.0001C20.8234 14.3402 19.8938 16.5846 18.239 18.2393C16.5843 19.8939 14.3399 20.8236 11.9998 20.8236C9.65962 20.8236 7.41536 19.8939 5.76063 18.2393C4.10588 16.5846 3.17627 14.3402 3.17627 12.0001C3.17627 9.65994 4.10588 7.41565 5.76063 5.76092C7.41536 4.10619 9.65962 3.17657 11.9998 3.17657Z" fill="#181B1E"/>
<path d="M12 18.253L15.1235 15.7471V15.1236H9.18234L8.87646 15.4353L12 18.2471V18.253Z" fill="#EE2225"/>
<path d="M17.2941 13.8764C17.2941 13.8764 17.6235 14.7293 17.6235 15.5471C17.6235 16.1647 17.0823 16.6941 15.8824 16.7058C15.4941 16.7058 15.0353 16.6529 14.5 16.5294L13.8765 15.5L15.306 14.0882L17.2941 13.8823V13.8764Z" fill="#EC2022"/>
<path d="M16.6117 13.8764C16.6117 13.8764 16.9999 14.6294 16.9999 15.347C16.9999 16.0765 15.8824 16.6588 13.3529 16.2294L12.6235 15.3117L14.3 14.0705L16.6117 13.8764Z" fill="#981C1E"/>
<path d="M10.753 7.00005C10.753 7.00005 11.7648 6.22358 13.5059 6.35299C13.5059 6.35299 14.2 5.75299 15.6707 5.75299C17.1412 5.75299 19.5883 6.87652 20.2354 7.29417C20.2354 7.29417 16.7647 6.28241 15.7 6.95887C14.6295 7.63534 14.9648 8.87653 14.9648 8.87653L12.1 8.5824L10.7471 7.00005H10.753Z" fill="#DB2027"/>
<path d="M17.1766 8.25302C17.1766 8.25302 18.2531 9.87651 18.2531 10.7059C18.2531 11.5413 17.9002 11.9119 16.9884 11.9942C16.0766 12.0766 15.7119 11.5472 15.7531 11.3472L16.3824 8.65889L17.1766 8.24713V8.25302Z" fill="#EA1C27"/>
<path d="M16.5465 8.87646C16.5465 8.87646 17.623 10.2294 17.623 10.9235C17.623 11.6176 17.276 11.9236 16.3643 11.9941C15.4525 12.0588 15.0819 11.6235 15.129 11.4529C15.1701 11.2764 15.7584 9.21764 15.7584 9.21764L16.5465 8.87646Z" fill="#981C1E"/>
<path d="M4.72353 13.7647C4.72353 13.7647 3.5 10.7706 6.61177 9.45299L7 9.30585L6.90588 8.87646L6.61177 8.99411C6.61177 8.99411 2.62354 9.3823 2.62354 12.2353C2.62354 14.4294 4.15295 15.5294 4.15295 15.5294C4.15295 15.5294 2.42354 13.1941 4.02353 11.4118C4.02353 11.4118 3.7353 12.3529 4.72942 13.7647H4.72353Z" fill="url(#paint1_linear_364_5193)"/>
<path d="M17.0647 7.69413C17.0647 7.69413 21.3764 9.22353 21.3764 11.4236C21.3764 13.2941 20.2352 13.1765 20.2352 13.1765C20.2352 13.1765 21.2999 12.2824 20.3235 10.8706C20.3235 10.8706 20.2352 12.5882 17.8823 12.5882C17.8823 12.5882 19.5882 12.1882 19.5882 11.3471C19.5882 10.5 18.6412 9.12941 17.047 7.90001L16.3765 7.90588L16.4352 7.62354L17.0647 7.69413Z" fill="url(#paint2_linear_364_5193)"/>
<path d="M7.20001 10.1236C7.20001 10.1236 5.12354 10.8531 5.12354 12.9236C5.12354 14.9883 5.71766 16.9001 9.05882 19.0589C9.05882 19.0589 6.32941 16.8942 6.37059 14.3413C6.37059 14.3413 7.84707 19.9177 14.9411 20.8236C14.9411 20.8236 10.1589 19.3118 8.60001 16.206L8.3706 11.1236L7.20001 10.1236Z" fill="url(#paint3_linear_364_5193)"/>
<path d="M11.9285 16.3764C8.91666 16.3764 6.69314 14.5 6.69314 14.5L7.05784 13.8765L6.37549 13.8883L7.05784 12H6.64607L7.39901 11.2353C6.80823 10.1186 6.45946 8.88994 6.37549 7.62941V7C7.83431 7.05883 9.66955 8.32353 9.66955 8.32353L10.9931 8.64118L10.4755 7L13.205 8.55883V7.62353L14.2344 8.25294C15.4579 7.37059 17.3049 7.31765 17.3049 7.31765C17.3049 8.87648 16.2814 11.3765 16.2814 11.3765L17.1284 12H16.6226L17.6225 13.8765L16.6226 13.6765L16.999 14.5765C16.4343 15.3412 14.9401 16.3764 11.9285 16.3764ZM8.08725 8.47059C8.08725 8.47059 8.36372 9.23529 8.42842 9.25879L7.60489 9.2824L8.09901 10.4824L7.86371 10.747L7.05784 8.24706L7.57548 8.35882L8.08725 8.47059ZM15.4813 8.48235L15.2579 9.20588H16.0519L15.4931 10.4058L15.8343 10.7411L16.6226 8.24118L15.4813 8.47648V8.48235ZM11.1578 12.6294L9.11078 11.3706C9.05196 12.0647 9.7578 13.2412 10.3108 13.2412C10.8461 13.2412 11.1578 12.6294 11.1578 12.6294ZM14.5695 11.3706L12.5225 12.6294C12.5225 12.6294 12.8344 13.247 13.3697 13.247C13.9225 13.247 14.6284 12.0647 14.5695 11.3647V11.3706ZM11.8402 15.1176C11.0814 15.1176 10.4755 14.8412 10.4755 14.4941C10.4755 14.3294 10.5049 14.1412 10.6814 14.0353C10.9755 13.8705 11.5461 13.8705 11.8402 13.8705C12.1344 13.8705 12.699 13.8705 12.9991 14.0353C13.1754 14.1235 13.205 14.3294 13.205 14.4941C13.205 14.8412 12.599 15.1176 11.8402 15.1176Z" fill="#F0F3FA"/>
<path d="M6.06459 6.99418L6.07636 6.67653L6.394 6.68829C7.18812 6.72358 8.06459 7.08241 8.71165 7.40594C9.08558 7.59577 9.44888 7.80588 9.79984 8.03535L10.5294 8.21182L9.94108 6.32947L12.894 8.0177V7.07064L14.2234 7.87652C14.8216 7.5191 15.479 7.27204 16.1646 7.14712C16.5296 7.07486 16.8991 7.0277 17.2705 7.00594H17.294L17.3058 7.3177C17.3058 7.3177 17.1881 7.3177 16.9941 7.34123C16.4117 7.40005 15.1528 7.59417 14.2293 8.253L13.2058 7.62359V8.55888L10.4764 7.00005L10.994 8.64711L9.67041 8.32359C9.67041 8.32359 8.08224 7.23535 6.68811 7.02947C6.58472 7.01473 6.48068 7.00491 6.37635 7.00005V7.62946C6.38812 8.40005 6.70577 9.94717 7.39988 11.2353L6.65283 12.0001H7.06459L6.37635 13.8824L7.0587 13.8765L6.69988 14.5001L6.49399 14.7353L6.294 14.5706L6.51165 14.1941L5.92929 14.2059L6.61752 12.3118H5.90576L7.02341 11.1825C6.37635 9.88829 6.08223 8.4177 6.06459 7.63535C6.06163 7.43536 6.06163 7.23534 6.06459 7.03536V6.99418ZM16.6235 13.6765L16.9998 14.5765C16.4352 15.3413 14.941 16.3765 11.9294 16.3765C8.91753 16.3765 6.694 14.5001 6.694 14.5001L6.49399 14.7353V14.7412H6.50576L6.5293 14.7648C6.65139 14.8678 6.77902 14.964 6.91165 15.0531C7.17636 15.2294 7.55871 15.4765 8.04694 15.7176C9.00576 16.2001 10.3587 16.6883 11.9294 16.6883C15.0117 16.6883 16.6117 15.6236 17.2528 14.7589L17.3587 14.6177L17.1411 14.0942L18.2116 14.3119L17.1411 12.3118H18.0763L16.6646 11.2648C16.8218 10.8561 16.9651 10.4421 17.094 10.0236C17.3469 9.20006 17.6234 8.14712 17.6234 7.3177V6.99418L17.294 7.00594L17.3058 7.3177C17.3058 7.41771 17.3058 7.52358 17.294 7.62946C17.1763 9.18829 16.2823 11.3765 16.2823 11.3765L17.1292 12.0001H16.6235L17.6234 13.8765L16.6235 13.6765ZM15.494 10.4118L15.8352 10.7471L16.6235 8.24711L15.4822 8.48241L15.2587 9.21182H16.0528L15.494 10.4118ZM16.0939 8.90006L16.1646 8.66476L15.7233 8.75888L15.6822 8.90006H16.0939ZM8.42929 9.26474C8.36417 9.17051 8.31269 9.06752 8.27634 8.95889C8.18223 8.73535 8.08811 8.47653 8.08811 8.47653L7.0587 8.24711L7.86458 10.7471L8.09988 10.4882L7.60576 9.28835L8.42929 9.26474ZM7.62341 8.97065L7.52341 8.67065L7.85282 8.74123L7.94106 8.96476L7.62341 8.97652V8.97065ZM12.5234 12.6353C12.5712 12.7286 12.6304 12.8157 12.6999 12.8942C12.8469 13.0589 13.0764 13.2471 13.3705 13.2471C13.8292 13.2471 14.394 12.4353 14.541 11.7589C14.5704 11.6236 14.5822 11.4942 14.5704 11.3765L12.5234 12.6353ZM14.1352 12.0118L12.9704 12.7295C13.0881 12.853 13.2293 12.9353 13.3705 12.9353C13.3999 12.9353 13.4764 12.9176 13.5999 12.8177C13.831 12.5869 14.0148 12.313 14.1411 12.0118H14.1352ZM12.8528 14.3176H12.8469C12.7024 14.252 12.5467 14.2142 12.3881 14.2059C12.0242 14.1709 11.6579 14.1709 11.294 14.2059C11.0822 14.2295 10.9234 14.2648 10.8352 14.3119C10.8234 14.3235 10.8117 14.3294 10.8058 14.3531C10.7918 14.4007 10.7857 14.4504 10.7881 14.5001C10.7881 14.5001 10.8058 14.5647 11.0058 14.6589C11.1998 14.7471 11.4999 14.8118 11.8411 14.8118C12.1881 14.8118 12.4822 14.753 12.6763 14.6589C12.8764 14.5647 12.894 14.4942 12.894 14.4942V14.5001C12.8966 14.4484 12.8905 14.3968 12.8764 14.3472C12.8738 14.3386 12.8698 14.3307 12.8646 14.3235H12.8528V14.3176ZM9.11165 11.3765C9.10576 11.4942 9.11165 11.6236 9.14105 11.7589C9.28816 12.4353 9.85282 13.253 10.3117 13.253C10.6058 13.253 10.8411 13.0589 10.9823 12.8942L11.0763 12.7706C11.1352 12.6942 11.1587 12.6353 11.1587 12.6353L9.11165 11.3765ZM9.54688 12.0118C9.59986 12.1412 9.66465 12.2765 9.747 12.406C9.85283 12.5825 9.97635 12.7236 10.0881 12.8177C10.2057 12.9176 10.2823 12.9353 10.3117 12.9353C10.4528 12.9353 10.5881 12.853 10.7057 12.7295L9.54688 12.0118ZM12.9999 14.0412C12.7058 13.8765 12.141 13.8765 11.8411 13.8765C11.547 13.8765 10.9823 13.8765 10.6823 14.0412C10.5057 14.1413 10.4764 14.3353 10.4764 14.5001C10.4764 14.8472 11.0822 15.1236 11.8411 15.1236C12.5998 15.1236 13.2058 14.8472 13.2058 14.5001C13.2058 14.3353 13.1763 14.1295 12.9999 14.0412Z" fill="#181B1E"/>
<path d="M10.7526 11.3766L11.335 12.0001C11.335 12.0001 11.4114 11.7178 11.3527 11.6471C11.2938 11.5884 10.7526 11.3766 10.7526 11.3766ZM13.2525 11.3766L12.6644 12.0001C12.6644 12.0001 12.588 11.7178 12.6467 11.6471C12.7115 11.5884 13.2468 11.3766 13.2468 11.3766H13.2525ZM10.9114 13.8531V13.8472C10.9412 13.8197 10.9726 13.7942 11.0055 13.7707C11.1937 13.6309 11.3995 13.5161 11.6173 13.4295C11.7467 13.3824 11.8762 13.3531 11.9997 13.3531C12.409 13.3857 12.794 13.5604 13.0878 13.8472C13.1114 13.8706 13.1644 13.8824 13.2056 13.8706C13.2468 13.8531 13.2643 13.8236 13.2409 13.8001C12.9094 13.4699 12.467 13.2748 11.9997 13.253C11.835 13.253 11.6703 13.2883 11.529 13.3413C11.2492 13.4388 10.9913 13.5906 10.7703 13.7883H10.7644C10.735 13.8178 10.7467 13.8472 10.7879 13.8647C10.829 13.8824 10.882 13.8765 10.9055 13.8531H10.9114ZM13.8526 15.1589C13.882 15.1942 13.882 15.259 13.8467 15.2942H13.8408C13.8169 15.3194 13.7914 15.343 13.7644 15.3648C13.7114 15.406 13.6408 15.4649 13.5526 15.5236C13.3595 15.6506 13.1371 15.7262 12.9067 15.7438C12.6762 15.7612 12.4451 15.7199 12.2349 15.6237C12.1629 15.5848 12.1028 15.527 12.0613 15.4565C12.0199 15.3861 11.9984 15.3055 11.9997 15.2236C11.9997 15.1648 12.0409 15.1236 12.0879 15.1236C12.1408 15.1236 12.182 15.1707 12.182 15.2236C12.182 15.3177 12.2231 15.4001 12.3173 15.459C12.5007 15.5392 12.7012 15.5722 12.9006 15.5546C13.1001 15.5372 13.2919 15.4699 13.4584 15.3589C13.5509 15.2984 13.6375 15.2295 13.7173 15.153M13.8526 15.153C13.8444 15.1441 13.8344 15.137 13.8232 15.1322C13.812 15.1273 13.8 15.1247 13.7878 15.1247C13.7758 15.1247 13.7637 15.1273 13.7526 15.1322C13.7414 15.137 13.7314 15.1441 13.7232 15.153H13.8526Z" fill="#2B2A29"/>
<path d="M10.1471 15.1589C10.1309 15.1781 10.1225 15.2027 10.1236 15.2276C10.1247 15.2528 10.1352 15.2765 10.153 15.2942C10.4176 15.5472 10.7882 15.7471 11.1529 15.7471C11.6882 15.7471 12 15.5706 12 15.2178C12 15.1707 11.9589 15.1236 11.9118 15.1236C11.8588 15.1236 11.8176 15.1707 11.8176 15.2235C11.8176 15.4236 11.6413 15.5588 11.1529 15.5588C10.8706 15.5588 10.4765 15.347 10.2765 15.1471M10.1471 15.1589C10.1549 15.1495 10.1647 15.142 10.1755 15.1366C10.1865 15.1313 10.1983 15.1281 10.2105 15.1276C10.2226 15.127 10.2348 15.1291 10.2462 15.1335C10.2575 15.1377 10.2679 15.1445 10.2765 15.153H10.1471V15.1589Z" fill="#2B2A29"/>
<path d="M15.0882 13.2529C15.0882 13.2529 14.4412 13.8824 13.8764 14.0882L14.8175 15.1236C14.8175 15.1236 15.247 14.2882 15.0882 13.247V13.2529ZM8.91171 13.2529C8.91171 13.2529 9.55876 13.8824 10.1234 14.0882L9.18229 15.1236C9.18229 15.1236 8.75289 14.2882 8.91171 13.247V13.2529Z" fill="#E72528"/>
<defs>
<linearGradient id="paint0_linear_364_5193" x1="6.0647" y1="3.5647" x2="18.5646" y2="20.1235" gradientUnits="userSpaceOnUse">
<stop stop-color="#0206BC"/>
<stop offset="0.95" stop-color="#3DAF49"/>
</linearGradient>
<linearGradient id="paint1_linear_364_5193" x1="13.4247" y1="4.81167" x2="12.0621" y2="14.1148" gradientUnits="userSpaceOnUse">
<stop stop-color="#E4282E"/>
<stop offset="1" stop-color="#F89F1C"/>
</linearGradient>
<linearGradient id="paint2_linear_364_5193" x1="6.98817" y1="2.00001" x2="18.7002" y2="24.4629" gradientUnits="userSpaceOnUse">
<stop offset="0.4" stop-color="#E4282E"/>
<stop offset="1" stop-color="#F89F1C"/>
</linearGradient>
<linearGradient id="paint3_linear_364_5193" x1="12.1857" y1="12.5224" x2="3.54991" y2="9.28264" gradientUnits="userSpaceOnUse">
<stop stop-color="#E4282E"/>
<stop offset="1" stop-color="#FDBE0E"/>
</linearGradient>
</defs>
</svg>

<svg xmlns="http://www.w3.org/2000/svg" width="24" height="24" fill="none" viewBox="0 0 24 24">
    <path fill="url(#KIBA__a)" d="M12 2a10 10 0 1 1 0 20 10 10 0 0 1 0-20"/>
    <path fill="#181B1E" d="M12 3.177a8.824 8.824 0 1 1 0 17.647 8.824 8.824 0 0 1 0-17.647"/>
    <path fill="#EE2225" d="m12 18.253 3.124-2.506v-.623H9.182l-.306.311L12 18.247z"/>
    <path fill="#EC2022" d="M17.294 13.876s.33.853.33 1.671c0 .618-.542 1.147-1.742 1.159-.388 0-.847-.053-1.382-.177l-.623-1.029 1.429-1.412 1.988-.206z"/>
    <path fill="#981C1E" d="M16.612 13.876s.388.753.388 1.471c0 .73-1.118 1.312-3.647.882l-.73-.917L14.3 14.07z"/>
    <path fill="#DB2027" d="M10.753 7s1.012-.776 2.753-.647c0 0 .694-.6 2.165-.6 1.47 0 3.917 1.124 4.564 1.541 0 0-3.47-1.012-4.535-.335-1.07.676-.735 1.918-.735 1.918L12.1 8.582 10.747 7z"/>
    <path fill="#EA1C27" d="M17.177 8.253s1.076 1.624 1.076 2.453c0 .835-.353 1.206-1.265 1.288s-1.276-.447-1.235-.647l.63-2.688.794-.412z"/>
    <path fill="#981C1E" d="M16.547 8.876s1.076 1.353 1.076 2.048c0 .694-.347 1-1.259 1.07-.912.065-1.282-.37-1.235-.541.041-.177.63-2.235.63-2.235z"/>
    <path fill="url(#KIBA__b)" d="M4.724 13.765S3.5 10.77 6.612 9.453L7 9.306l-.094-.43-.294.118s-3.988.388-3.988 3.241c0 2.194 1.529 3.294 1.529 3.294s-1.73-2.335-.13-4.117c0 0-.288.94.706 2.353z"/>
    <path fill="url(#KIBA__c)" d="M17.065 7.694s4.311 1.53 4.311 3.73c0 1.87-1.14 1.753-1.14 1.753s1.064-.895.087-2.306c0 0-.088 1.717-2.44 1.717 0 0 1.705-.4 1.705-1.24 0-.848-.947-2.219-2.541-3.448l-.67.006.058-.282z"/>
    <path fill="url(#KIBA__d)" d="M7.2 10.124s-2.076.73-2.076 2.8c0 2.064.594 3.976 3.935 6.135 0 0-2.73-2.165-2.688-4.718 0 0 1.476 5.577 8.57 6.483 0 0-4.782-1.512-6.341-4.618l-.23-5.082z"/>
    <path fill="#F0F3FA" d="M11.929 16.376c-3.012 0-5.236-1.876-5.236-1.876l.365-.623-.683.011L7.058 12h-.412l.753-.765A9 9 0 0 1 6.375 7.63V7c1.46.059 3.295 1.324 3.295 1.324l1.323.317L10.475 7l2.73 1.559v-.935l1.03.629c1.223-.882 3.07-.935 3.07-.935 0 1.558-1.024 4.059-1.024 4.059l.847.623h-.505l1 1.877-1-.2.376.9c-.565.764-2.059 1.8-5.07 1.8M8.086 8.471s.277.764.341.788l-.823.023.494 1.2-.235.265-.806-2.5.517.112zm7.394.011-.223.724h.794l-.559 1.2.341.335.789-2.5-1.142.235zm-4.323 4.147L9.11 11.371c-.059.694.647 1.87 1.2 1.87.535 0 .847-.612.847-.612m3.412-1.258-2.047 1.258s.311.618.847.618c.553 0 1.258-1.182 1.2-1.882zm-2.73 3.747c-.759 0-1.364-.277-1.364-.624 0-.165.029-.353.205-.459.295-.165.865-.165 1.16-.165.293 0 .858 0 1.158.165.176.088.206.294.206.46 0 .346-.606.623-1.365.623"/>
    <path fill="#181B1E" d="m6.065 6.994.011-.317.318.011c.794.036 1.67.394 2.318.718q.561.285 1.088.63l.73.176-.589-1.883 2.953 1.689V7.07l1.33.806a5.8 5.8 0 0 1 1.94-.73q.55-.109 1.106-.141h.024l.012.312s-.118 0-.312.023c-.582.06-1.841.253-2.765.912l-1.023-.63v.936L10.476 7l.518 1.647-1.324-.323S8.082 7.235 6.688 7.029A3 3 0 0 0 6.376 7v.63c.012.77.33 2.317 1.024 3.605L6.653 12h.412l-.689 1.882.683-.005-.36.623-.205.235-.2-.164.218-.377-.583.012.689-1.894h-.712l1.117-1.13c-.647-1.294-.94-2.764-.958-3.547q-.004-.3 0-.6zm10.559 6.683.376.9c-.565.764-2.059 1.8-5.07 1.8S6.693 14.5 6.693 14.5l-.2.235v.006h.012l.023.024q.183.154.383.288c.264.176.647.423 1.135.665.959.482 2.312.97 3.882.97 3.083 0 4.683-1.064 5.324-1.93l.106-.14-.218-.524 1.07.218-1.07-2h.935l-1.411-1.047q.236-.614.429-1.241c.253-.824.53-1.877.53-2.706v-.324l-.33.012.012.312c0 .1 0 .206-.012.311-.118 1.56-1.012 3.748-1.012 3.748l.847.623h-.506l1 1.877zm-1.13-3.265.341.335.788-2.5-1.14.235-.224.73h.794zm.6-1.512.07-.235-.44.094-.042.141zm-7.665.365a1.2 1.2 0 0 1-.153-.306c-.094-.224-.188-.482-.188-.482l-1.03-.23.807 2.5.235-.259-.494-1.2zm-.806-.294-.1-.3.33.07.088.224-.318.012zm4.9 3.664q.072.14.177.26c.147.164.376.352.67.352.46 0 1.024-.812 1.171-1.488a1.2 1.2 0 0 0 .03-.383zm1.612-.623-1.165.717c.118.124.26.206.4.206.03 0 .106-.017.23-.117.231-.231.415-.505.541-.806zm-1.282 2.306h-.006a1.3 1.3 0 0 0-.459-.112 5.7 5.7 0 0 0-1.094 0c-.212.024-.37.059-.459.106-.012.011-.023.017-.03.041a.5.5 0 0 0-.017.147s.018.065.218.159c.194.088.494.153.835.153.347 0 .641-.059.835-.153.2-.094.218-.165.218-.165v.006a.5.5 0 0 0-.018-.153l-.011-.024h-.012zm-3.741-2.941c-.006.117 0 .247.029.382.147.676.712 1.494 1.17 1.494.295 0 .53-.194.671-.359l.094-.123c.06-.077.083-.136.083-.136zm.435.635q.078.197.2.394c.106.176.23.318.341.412.118.1.194.117.224.117.14 0 .276-.082.394-.206zM13 14.042c-.294-.165-.859-.165-1.159-.165-.294 0-.859 0-1.159.164-.176.1-.206.294-.206.46 0 .346.606.623 1.365.623s1.365-.277 1.365-.624c0-.165-.03-.37-.206-.459"/>
    <path fill="#2B2A29" d="m10.753 11.377.582.623s.076-.282.018-.353c-.06-.059-.6-.27-.6-.27m2.5 0-.589.623s-.076-.282-.017-.353c.064-.059.6-.27.6-.27zm-2.342 2.476v-.006a1 1 0 0 1 .095-.076q.283-.211.611-.341c.13-.048.26-.077.383-.077a1.76 1.76 0 0 1 1.088.494c.023.024.076.035.118.024.04-.018.058-.047.035-.07A1.88 1.88 0 0 0 12 13.252c-.165 0-.33.035-.471.088-.28.098-.538.25-.759.447h-.006c-.029.03-.017.06.024.077s.094.011.117-.012zm2.942 1.306c.029.035.029.1-.006.135h-.006a1 1 0 0 1-.077.07c-.053.042-.123.1-.211.16a1.37 1.37 0 0 1-1.318.1.45.45 0 0 1-.235-.4c0-.06.04-.1.088-.1.053 0 .094.047.094.1 0 .094.041.176.135.235a1.2 1.2 0 0 0 1.141-.1q.14-.091.26-.206m.135 0a.09.09 0 0 0-.13 0z"/>
    <path fill="#2B2A29" d="M10.147 15.159a.1.1 0 0 0 .006.135c.265.253.635.453 1 .453.535 0 .847-.176.847-.53 0-.046-.041-.093-.088-.093-.053 0-.094.047-.094.1 0 .2-.177.335-.665.335-.282 0-.677-.212-.876-.412m-.13.012a.09.09 0 0 1 .13-.006h-.13z"/>
    <path fill="#E72528" d="M15.088 13.253s-.647.63-1.212.835l.942 1.036s.429-.836.27-1.877zm-6.176 0s.647.63 1.211.835l-.94 1.036s-.43-.836-.271-1.877z"/>
    <defs>
        <linearGradient id="KIBA__a" x1="6.065" x2="18.565" y1="3.565" y2="20.123" gradientUnits="userSpaceOnUse">
            <stop stop-color="#0206BC"/>
            <stop offset=".95" stop-color="#3DAF49"/>
        </linearGradient>
        <linearGradient id="KIBA__b" x1="13.425" x2="12.062" y1="4.812" y2="14.115" gradientUnits="userSpaceOnUse">
            <stop stop-color="#E4282E"/>
            <stop offset="1" stop-color="#F89F1C"/>
        </linearGradient>
        <linearGradient id="KIBA__c" x1="6.988" x2="18.7" y1="2" y2="24.463" gradientUnits="userSpaceOnUse">
            <stop offset=".4" stop-color="#E4282E"/>
            <stop offset="1" stop-color="#F89F1C"/>
        </linearGradient>
        <linearGradient id="KIBA__d" x1="12.186" x2="3.55" y1="12.522" y2="9.283" gradientUnits="userSpaceOnUse">
            <stop stop-color="#E4282E"/>
            <stop offset="1" stop-color="#FDBE0E"/>
        </linearGradient>
    </defs>
</svg>
